!!!SOCIAL_FUNCTION:	songs connected with legends
!!!PDT:	1929
!!!OTL: No_12_White_Feathers_Along_the_Edge_of_the_World.krn
!!!REG: Southwest
!!!LANG: Non-Tone
!!!LING_GROUP: Uto-Aztecan
**kern
*staff1
=1-
*clefF4
*k[]
*M5/8
4F\
16A-\LL
16G\J
8A-\
8G\J
=2||
*M2/4
16F\LK
8.F\J
8F\L
8D\J
=3||
*M5/8
4F\
16G\LL
16F\J
8G\
8F\J
=4||
*M2/4
16C/LK
8.C/J
8C/
8r
=5
4C/
8F\L
16F\L
16C\JJ
=6
4C/
8D-/L
8C/J
=7||
*M3/4
16F\LK
8.F\J
4F\
4r
=8||
*M5/8
4F\
16A-\LL
16G\J
8A-\
8G\J
=9||
*M2/4
16F\LK
8.F\J
8F\L
8D\J
=10||
*M5/8
4F\
16G\LL
16F\J
8G\
8F\J
=11||
*M2/4
16C/LK
8.C/J
8C/
8r
=12
4C/
8F\L
16F\L
16C\JJ
=13
4C/
8D-/L
8C/J
=14||
*M3/4
8.F\L
16F\Jk
4F\
4r
=15||
*M5/8
8.G\L
16F\K
8G\
16G\L
16F\J
8G\J
=16||
*M2/4
8.G\L
16G\Jk
8.G\L
16G\Jk
=17
16D-\LK
8.D-\J
8D-\
8r
=18||
*M5/8
8.G\L
16G\Jk
4.D-\
=19||
*M2/4
8.D-\L
16F\Jk
8.F\L
16D-\Jk
=20||
*M3/8
4F\
8r
=21||
*M5/8
8.G\L
16F\K
8G\
16G\L
16F\J
8G\J
=22||
*M2/4
8.G\L
16G\Jk
8.G\L
16G\Jk
=23
12F\L
12D-\
12D-\J
4D-\
=24||
*M5/8
8.G\L
16G\Jk
4.D-\
=25||
*M2/4
8.D-\L
16F\Jk
8.F\L
16D-\Jk
=26
4F\
4r
==
*-
